X:2496
T:Polska från Dalarna
T:Svenska Folkdansar H3 nr 6
O:Dalarna
B:Traditioner av Svenska Folkdansar Häfte 3, nr 8
R:Polska
Z:Nils L
M:2/4
L:1/16
K:Am
A2 | c2cB (A^GAc) | e2e2    f2ed | c2c2 (BAcB) | A4>A4   |
     c2cB A^GAc   | (e2>d2) cdef | g2ge (dced) | c6     ::
c2 | e2e2 efed    | e2>d2   c2A2 | d2d2 c2BA   | ^G4>A4  |
     c2cB (A^GAc) | e2e2-   efed | c2c2 (BAcB) | A6     :|
(:musicend:)
(:music:)
